X:1
T:Violin Sonata No. 1 in G Minor
T:Bass Sonata No. 1 in G Minor
T:BWV 1001
T:Johann Sebastian Bach
C:Johann Sebastian Bach
%%score ( 1 2 3 4 )
L:1/8
Q:1/4=25
M:4/4
K:F
V:1 bass transpose=-12 nm="Contrabaixo" snm="Cb."
V:2 bass transpose=-12 
V:3 bass transpose=-12 
V:4 bass transpose=-12 
V:1
"^Adagio""^Change Instr." G2- G/4(F/4^D/4=D/4C/4B,/4A,/4B,/8G,/8) C2 x2 | %1
 !wedge!^F2 x2 G z/4 (G,/4A,/8B,/8C/8D/8) ^DB, | %2
 (B,/A,/)(^D/=D/) z (B/^F/) G x (B,/4^F,/4G,/4=D,/4^D,/4D/8C/8B,/8C/8TC/8B,/16C/16) | %3
 (GT^F) AC (B,/D/F/A/) GB, | A,/(B/4A/8G/8TF/>E/) FA, (F/D/)^D (B/G/)(G/D/) | (^D/^C/)A x2 x4 | %6
 D,/(G/F/G/4E/4) FA, (A,/D,/)G,/F/ E-(E/8F/8G/8A/8B/8E/8F/8G/8) | %7
 (D^C) (G,/4F,/G,/8E,/8F,/)D/ (D/4>C/4=B,/4C/4D/4E/4F/4G/8E/8) TC>D | %8
 D2- D/4(D/4C/4B,/4A,/8B,/8A,/8B,/8TB,/4A,/8B,/8) C/(^D/4=D/4)^D- ^F x | %9
 G x (G/4F/4^D/4=D/4C/4B,/4A,/8G,/8^F,/8G,/8) A,2 =B, x | %10
 (=B,/D/)(D/C/) (^D/=D/)(D/^D/){D} =D/>(_B,/C/4D/4^D/4F/8G/8) (^G/B,/=D,/)G/ | %11
 ^D,/(^G/=G) ^C(D,/4G,/4B,/4C/4) ^G,,/=C/ ^G/(=G/4F/4) (^DT=D/>)^D/ | %12
 !fermata!^D2 (=B,,/4D,/4=F,/4^G,/4=B,/4=D/4F/4^G/8=G/8) G/- G/4(^G/8=G/8^F/8G/8D/8^D/8B,/8C/8^F,/4) =G,/4D/(=D/TC/8B,/8C/) | %13
 C3/4(B,/8^G,/8=G,/4F,/4^D,/4=D,/4) (C,/4=B,,/4C,/4G,,/4C,/4^D,/4G,/4C/4) (=D,/C/4F/4)!trill(!T=B,- !trill)!B,/4(A,/4G,/4A,/4B,/4C/4D/4F/8^D/8) | %14
 F2- F/4(^G/4=G/4F/4G/4F/4^D/4=D/4) ^D z/4 (C/4=D/8^D/8F/8G/8) ^GD | %15
 (^D/=D/)(^G/=G/) GG G x (F/4G/4^D/4F/<TF/D/8F/8) | G2 FF (G,/4=B,/4D/4F/4)(^G/=G/) ^DG | %17
 A2 B,/-B,/8(A,/8G,/8^F,/8G,/4D,/4B,,/4G,,/4) (C,/4^D,/4B,/4G,/4)^G, z ^G/^F/ | %18
 (^F/4G/4A/4F/4)D B,,/>(D/C/4B,/4A,/4B,/8G,/8) (A,,/G,/C/)A,/ (G,/^F,/D,/)C/ | %19
 G,,/>(C/B,/C/4A,/4) B,/>(G,,/A,,/C,/4B,,/4) C,/(D,/^D,/)(G,/ ^G,/)(=B,/C/)^D/ | %20
 (G^F) (B3/4(3A/8G/8F/8)G G/>(B,/C/4D/4E/4F/4) (G/8A/8B/8A/8B/8G/8^G/8F/16=G/16) (G/TF/4>G/4) | %21
 !fermata![B,G]8 |[M:2/2][Q:1/4=90]"^Fuga"[Q:1/4=90]"^Allegro" z DDD DC/B,/ CA, | %23
 B, z ^D z A, z =D z | z GGG GF/^D/ F=D | ^D x C,/(B,/A,/B,/4C/4) z =DDD | DC/B,/ CA, B, z B z | %27
 BA/G/ (A/^F/)G F/ x/ x x2 | D,/A,/^C/E/ F/A/D/=C/ =B,/D/F/^G/ =G/F/^D/=D/ | %29
 ^D/G,/C/=D/ ^D/G/C/B,/ A,/C/D/G/ F/D/=D/C/ | D/A,/B,/^F,/ G,/B,/D/=F,/ E,/G,/B,/D/ C/A,/B,/G,/ | %31
 ^F,/A,/C/^D/ =D/C/B,/A,/ B,/G,/D/=F,/ ^D,/D/G/C/ | ^F x BB BA/G/ AA | %33
 ^G/(=G/^G/)^F/ =G=F ^D=D C_B, | (^G,/^F,/)(F,/=G,/) G,/B,,/A,,/G,,/ A,,/G,/C/^D/ D,/G,/A,/F,/ | %35
 G,ddd dc/B/ cA | B z ^d z A z =d2- | dc cc cB/A/ BG | A z d z G z c2- | cB BB BA/G/ AB/A/ | %40
 G z c z cB/A/ Bc/B/ | A z d z d z c z | F z B z AFGA | BA G z GF/E/ FF | FE/D/ E^C D z z D | %45
 D z ^C>D D z D, z | E, z z ^F, G,G,G,G, | G,F,/^D,/ F,=D, z CCC | CB,/A,/ B,C/B,/ A, z D z | %49
 D(E/F/) (E/D/)(^C/D/) CA AA | AG/F/ GG GF/E/ FF | (BA) (A^G) (GA) (A^F) | (^FG) (GE) (E=F) (FD) | %53
 (D^D) (D^C) C(B/^G/) AC | D(B/^G/) A^c (d=c) (cB) | (BA) (A^c) (cd) dG | G>A FE E4 | E4 AGAF | %58
 G4 GFGE | FEFG ABAG | FEFG AGA=B | ^c=Bcd efed | ^c=Bcd edec | %63
 D,/D/F/A/ d/A/F/D/ A,/d/c/B/ c/A/^F/D/ | G,,/G,/B,/D/ G/D/B,/G,/ D,/G/F/^D/ F/=D/=B,/G,/ | %65
 C,/C/^D/G/ c/G/D/C/ G,/c/B/A/ B/G/E/C/ | F,/C/F/G/ ^G/F/D/B,/ ^D,/B,/^D/F/ =G/D/C/A,/ | %67
 F/D/=B,/G,/ ^D/C/^G,/F,/ ^C/_B,/=G,/^D,/ =C/^G,/F,/=D,/ | %68
 G,,/D,/F,/=B,/ D/B,/F,/D,/ G,,/D,/F,/B,/ D/B,/F,/D,/ | %69
 G,,/C,/^D,/G,/ C/G,/D,/C,/ G,,/C,/D,/G,/ C/G,/D,/C,/ | %70
 ^G,,/C,/^D,/G,/ C/G,/D,/C,/ G,,/C,/D,/G,/ C/G,/D,/C,/ | %71
 A,,/D,/^F,/A,/ C/A,/F,/D,/ A,,/D,/F,/A,/ C/A,/F,/D,/ | %72
 G,,/C,/^D,/G,/ C/(^D/^C/)(=B,/ =C/)(B/^G/)(^F/ =G/)(=F/E/F/) | F z c z c z =Bd | %74
 (^D,/D/G/)=B,/ z G GF/^D/ F=D | ^D=D/C/ ^C=B, =C>D B,>C | CC,C,C, =D, z z E, | %77
 F,F, A, z B, z C z | z FFF F^D/=D/ ^D(C/=D/4^D/4) | DBBB BA/G/ A=B | cccc cB/A/ Bc/G/ | %81
 A(B/F/) G(A/G/) F(G/D/) x2 | z DDD D^D/=D/ CB, | A,FFF FG/F/ ^D=D | %84
 G(A/B/) (B/A/G/F/) BF ^D/(=D/C/)B,/ | B,,/D/C/D/ (B,/D/)(A,/D/) (G,/D/)(F,/D/) (^D,/D/)(=D,/D/) | %86
 (^D,/D/G/)F/ ^D/=D/C/B,/ (A,/C/)(G,/C/) (^F,/C/)(E,/C/) | %87
 (D,/C/A/)C/ B,/A,/B,/G,/ A,/D,/F/^G,/ =G,/F,/G,/^D,/ | %88
 F,/B,,/D/F,/ ^D,/=D,/^D,/C,/ =D,/G,,/B,/D,/ ^D,/C,/C/E,/ | %89
 ^F,/D,/A,/F,/ C/A,/^D/C/ ^F/C/(A/F/ D/C/A,/F,/) | (D,/C/^F/)C/ F/C/A/C/ (D,/C/F/)C/ F/C/A/C/ | %91
 (D,/B,/D/)B,/ D/B,/G/B,/ (D,/B,/D/)B,/ D/B,/G/B,/ | (D,/A,/^F/)D/ F/D/c/D/ (D,/D/F/)D/ F/D/c/D/ | %93
 (D,/D/G/)D/ G/D/B/D/ (D,/D/G/)D/ G/D/B/D/ | (D,/^C/E/)C/ E/C/B/C/ (D,/C/E/)C/ E/C/B/G/ | %95
 x2 dd dc/B/ cc | cB/A/ BB (BA) (AG) | (^FG) (GE) (E=F) (FD) | %98
 D(^D/=D/) ^D/G/B/=D/ ^C/(E/A/)C/ D/F/A/=C/ | =B,/(^G/=G/F/) G/D/^D/B,/ C/(^G/=G/F/) G/=D/^D/C/ | %100
 ^F,/A,/C/(^D/ =D/C/)A/(C/ D/^D/)(A,/B,/ C/)F,/G,/A,/ | z DDD DC/=B,/ CA | CC/B,/ CA B,B,/A,/ B,G | %103
 B>A x2 ^FGGG | G x ^F x =F x ^D x | ^D z =DB G^G/=G/ ^G/^F/=G | ^F z z F GA BF | ^FGGG G>A F>G | %108
 G,,/G,/B,/D/ G/D/B,/G,/ A,/G/F/^D/ F/=D/=B,/G,/ | %109
 G,,/G,/C/D/ ^D/C/^G,/=G,/ ^F,/D/=D/C/ D/B,/G,/=F,/ | %110
 G,,/^D,/G,/=B,/ C/^D/^G,/=G,/ A,,/C,/^F,/A,/ C/D/^F/A/ | %111
 B,,/D,/G,/B,/ D/^F/G/B/ C,/^D,/G,/C/ ^D/G/A/c/ | D,/c/B/D/ ^C/B/A/=C/ =B,/A/G/_B,/ A,/G/F/^G,/ | %113
 G,/F/^D/G,/ ^F,/D/=D/=F,/ E,/(D/C/=B,/ C/)(^D,/=D,/C,/) | %114
 ^F3-[Q:1/4=40] (F/8G/8A/8F/8G/8A/8C/8D/8 ^D/8C/8=D/8^D/8A,/8B,/8C/8A,/8B,/8C/8^F,/8G,/8A,/8F,/8G,/8A,/8) z G | %115
 G/-(G/4A/4G/4^F/4G/8E/8F/4) TF>G G4 |[M:12/8][Q:1/4=50]"^Siciliana" z3 z z B (BA)G (GF) z | %117
 z FG z ^D/C/=D z D/F/^D/=D/ C z z | z C/B,/C z CF z ^D/=D/^D (A,,/C,/F,/A,/4C/4D/G/) | %119
 F(^D/=D/)(C/B,/) D(C/4D/4^D/)=D B, z z z z B | BA z z z A AG z z BA | %121
 z (^F/A/)G z (G/B/)A z (A/B/)(B/c/) (c/4B/4A/4G/4F/4E/4=D/4C/4B,/4A,/4B,/4C/4) | %122
 ^F,(d/A/)c G,/(B/A/)(^F/G/)D/ ^DC z z z ^G | %123
 ^F(G/D/)(^D/=D/) z/ C/(B,/A,/)(G,/^F,/) (B,,/4D,/4E,/4F,/4G,/4A,/4B,/4C/4D/4C/4^D/4=D/4) z (C/B,/A,/G,/) | %124
 G,3/2 z/ z z z B, B,A, z z z =B, | =B,C z z z c cB z z z B | BA z z z ^G (G=G) z z z G | %127
 F z D ^D z F (D/=D/)(^D/=D/)(C/B,/) (B,/A,/)(C/B,/)(D/C/) | %128
 ^D z/ G/c (B/A/G/F/)D (D=D/)F/B (^G/F/D/B,/)G | %129
 (D/B,/)C/A,/=D,/F/ (C/A,/)(B,/G,/)C,/^D/ (B,/G,/)(A,/F,/)B,,/=D/ (^D,/D/G)(F/^D/) | %130
 (DC) x x x C F>GF F(^D/=D/C/=B,/) | ^D>FD D(=D/C/B,/A,/) (G,/F,/)(^D,/=D,/)^D, F^D/C/=D | %132
 C/B,/^D=D x x F E>FE E/(G/F/E/=D/C/) | F>D^D x2 x (D/=D/)GF z z C | B, z z z z B BA z z z A | %135
 AB z z3 z6 |[M:3/8][Q:1/4=130]"^Presto" G/B/G/D/G/D/ | B,/D/B,/G,/B,/G,/ | D,/G,/D,/B,,/D,/B,,/ | %139
 G,,/B,,/D,/G,/B,/D/ | G/(D/C/B,/A,/G,/) | ^F,/D,/F,/A,/D/^F/ | A/(^D/=D/C/B,/A,/) | %143
 G,/D,/G,/B,/D/G/ | B/G/^D/C/D/G/ | A/F/D/B,/D/F/ | G/^D/C/A,/C/D/ | D,/G/(^F/G/A/)C/ | %148
 G,/C/(B,/C/D/)F,/ | C,/F/(E/F/G/)B,/ | F,/B,/(A,/B,/C/)^D,/ | B,,/^D/(=D/^D/F/)^G,/ | %152
 ^D,/B,,/D,/G,/D,/G,/ | C/G,/C/^D/C/D/ | F,/C,/F,/A,/F,/A,/ | D/A,/D/F/D/F/ | G,/D,/G,/B,/G,/B,/ | %157
 ^D/B,/D/G/D/G/ | A,/F,/A,/C/A,/C/ | F/C/F/A/F/A/ | (B,/C/D/)B/A/B/ | (C/D/^D/)B/A/B/ | %162
 (D/^D/F/)B/A/B/ | (^D/F/G/)B/A/B/ | (A,/C/^D/)G/F/D/ | (D/B,/)(^D/B,/)F/^G,/ | %166
 (G,/A,/B,/)D,/C,/A,/ | B,,/(D,/C,/B,,/A,,/G,,/) | A,,/(G,/^F,/E,/D,/)(C/ | B,/A,/G,/)(F/E/D/ | %170
 ^C/)(B/A/G/F/E/) | (F/D/)(G/D/)A/C/ | B,/(A/G/F/E/D/) | (E/C/)(F/C/)G/B,/ | A,/(G/F/E/D/^C/) | %175
 (D/B,/)(E/B,/)F/A,/ | G,/(F/E/D/^C/=B,/) | (^C/A,/)(D/A,/)E/G,/ | F,/D/B,/G,/E,/C/ | %179
 D,/B,/G,/E,/C,/A,/ | B,,/G,/E,/^C,/A,,/F,/ | G,,/(F,/E,/D,/^C,/=B,,/) | A,,/D,/(^C,/E,/)(D,/F,/) | %183
 A,,/E,/(D,/F,/)(E,/G,/) | A,,/F,/(E,/G,/)(F,/A,/) | B,,/G,/(^F,/A,/)(G,/B,/) | %186
 ^C,/(B,/A,/G,/F,/E,/) | F,/D,/F,/A,/D/F/ | A/D/A,^C | D3 :: D,/A,,/D,/^F,/D,/F,/ | %191
 A,/^F,/A,/D/A,/D/ | ^F/D/F/A/F/A/ | d/A/^F/D/A,/^F,/ | (D,/E,/^F,/G,/A,/B,/ | C/)^D/C/A,/C/A,/ | %196
 ^F,/D,/F,/A,/D/C/ | B,/D/B,/G,/D,/B,,/ | (G,,/A,,/B,,/C,/D,/^D,/ | F,/)^G,/F,/D,/F,/D,/ | %200
 =B,,/G,,/B,,/D,/G,/F,/ | ^D,/C,/D,/G,/C/D/ | ^D/C/^G,/F,/G,/C/ | D/B,/G,/^D,/G,/B,/ | %204
 C/^G,/F,/D,/F,/G,/ | G,,/C/(=B,/C/D/)F,/ | C,/F/(^D/F/G/)B,/ | F,/B,/(^G,/B,/C/)^D,/ | %208
 B,,/^D/(=D/^D/F/)^G,/ | ^D,/^G,/(=G,/^G,/B,/)^C,/ | (^G,,/C,/F,/^G,/=G,/F,/) | %211
 (=B,,/D,/F,/^G,/=G,/F,/) | (C,/E,/F,/^G,/=G,/F,/) | (D,/F,/=B,/C/D/F,/) | (^D,/G,/C/D/^D/C/) | %215
 (^G/=G/F/^D/=D/C/) | G/D/^D/C/G,/=B,/ | C,/(F,/^D,/=D,/C,/B,,/) | A,,/C,/F,/C,/F,/A,/ | %219
 F,/A,/C/A,/C/^D/ | C/^D/(A/G/F/D/) | (D/C/B,/C/D/E/) | ^F/A/c/A/F/A/ | ^F/C/F/C/A,/C/ | %224
 A,/^F,/A,/F,/D,/C/ | B,/G,/B,/G,/E,/D/ | C/A,/C/A,/^F,/^D/ | D/B,/D/B,/G,/F/ | ^D/C/D/C/A,/G/ | %229
 ^F/(D/E/F/G/A/) | B/D/G/B/C/^D/ | A/F/D/B,/D/F/ | G/B,/^D/G/A,/C/ | F/D/B,/G,/B,/D/ | %234
 ^D/G,/C/D/F,/A,/ | D/B,/G,/E,/G,/B,/ | (C/A,/)(B,/G,/)^F,/A,/ | (D,/E,/^F,/G,/A,/B,/) | %238
 (C/^D/)(=D/G/)(^F/B/) | (A/G/^F/E/D/C/) | B,/^D/(=D/B,/)(C/A,/) | F,/D/(C/A,/)(B,/G,/) | %242
 ^D,/C/(B,/G,/)(A,/^F,/) | D,/B,/(A,/^F,/)(G,/^D,/) | C,/A,/(G,/E,/)(^F,/D,/) | %245
 B,,/(D/C/B,/A,/G,/) | (^D/=D/C/)(B/A/G/) | (^F/G/A/)D/^D/C/ | (F,/=B,/D/)^G,/=G,/F,/ | %249
 E,/G,/C/E/G/B,/ | (^D,/A,/C/)G,/F,/D,/ | D,/F,/B,/D/F/^G,/ | G,/^D/B,/G,/(^D,/=D,/ | %253
 C,/)(^D/C/B,/A,/G,/ | ^F,/)D/A,/F,/(D,/C,/ | B,,/)(D/B,/A,/G,/F,/ | E,/)C,/G,/B,,/A,,/G,/ | %257
 ^F,/D,/A,/C,/B,,/A,/ | G,/^D,/B,/=D,/C,/B,/ | A,/F,/C/^D,/=D,/C/ | B,/G,/D/F,/E,/D/ | %261
 C/A,/^D/G,/^F,/D/ | D/B,/G/B,/A,/C/ | B,/G,/^F,/A,/D,/C,/ | B,,/G,/(^F,/A,/)(G,/B,/) | %265
 C,/A,/(G,/B,/)(A,/C/) | D,/B,/(A,/C/)(B,/D/) | ^D,/C/(=B,/D/)(C/^D/) | ^F,/(^D/=D/C/B,/A,/) | %269
 B,/D/G/B/G/D/ | B,/G,/D,^F | G3 :| %272
V:2
 B,2 x2 G,^F,- F,/4(E,/4D,/4E,/4F,/4G,/4A,/4C/8B,/8) | D, x x2 D, x z G, | F, x z D, ^D, x x2 | %3
 D,2 z D, G,,/ x/ x z G,, | ^C, z z D, G,/ x/ z z (B,/G,/) | %5
 G, z F,/>(A/G/4F/4E/4=D/4) (E,/D/G/)E/ (D/^C/)(A,/G/) | x2 z C, B,, x x2 | A,, x x2 A,, x x2 | %8
 D,2 x2 A,,/ x/ x D/4(^D/4=D/4C/4B,/C/4A,/4) | G,, x x2 D,2 G,, x | D,^D, F,G, F, x x2 | %11
 x4 x F, B,, x | A,,2 x2 ^D,/ x/ x x2 | x8 | G,,2 x2 C, x x C, | B,, x z G,, ^G,, x x2 | %16
 G,, x z =B,, C, x z C, | ^F, x x2 x2 (^D/C/)(C/A,/) | A,/ x/ x x2 x4 | x8 | D,2 x E, x4 | %21
 [G,,D,]8 |[M:2/2] x8 | z G,G,G, G,F,/^D,/ F,=D, | ^D, z D, z =D, z D, z | G,G,, x2 C, z B,, z | %26
 A,, z D, z G,, x F,=D, | ^D, x x2 =D,/ x/ x B,/G/A,/G,/ | x8 | x8 | x8 | x8 | %32
 DD, G,G, ^D, z F,F, | D, z ^D,=D, C, x ^D,/=D,/D,/C,/ | C, x x2 x4 | G,, x x2 x4 | %36
 z GGG GF/^D/ F=D | ^DD/=D/ ^DF/D/ =D z G z | GFFF F^D/=D/ ^DC | DD/C/ D^D/=D/ C z F z | %40
 F^D/=D/ ^DF/D/ =D z G z | GF/E/ FG/F/ z A,A,A, | A,G,/F,/ G,E, F,D,E,F, | G,F, E, z A,, z D,D, | %44
 G,, z z A,, B,, z z G,, | A,, z E,>D, D,D, D,D, | D,C,/B,,/ C,A,, B,, z G,, z | %47
 A,, z z =B,, C, z A,, z | D, z G, z D, z F,G,/F,/ | ^G,, z x2 =G,, z F, z | B, z z E, A, z z D, | %51
 G, z F, z E, z A,, z | D, z D, z ^C, z D, z | B,, z B,, z A,, z z A,, | A,, z z A, B, z A, z | %55
 GF FE (EF) (F^C) | (^CA,) DG, A,G,A,F, | G,F,G,E, F,E,F,D, | E,4 A,4 | D^CDE FGFE | D^CDE FEFD | %61
 EDEF GAGF | EDEF GFGE | x8 | x8 | x8 | x8 | x8 | x8 | x8 | x8 | x8 | x8 | G,, z z2 G,, z z2 | %74
 G,, z z x G,, z G, z | C, z ^G,, z A,, z =G,, z | C, x x2 C,B,,/A,,/ B,,G,, | %77
 A,, z F,F, F,^D,/=D,/ ^D,C, | D, z G,, z C, z z F, | B,B,,B,,B,, F, z z2 | z C,C,C, G, z z2 | %81
 F, z ^D, z =D, z ^D/C/A,/F,/ | B,,B,,B,,A,, G,, z A,,B,, | C,=D,D,D, G,, z A,,B,, | %84
 ^D, z C z z =D, F, z | x8 | x8 | x8 | x8 | x8 | x8 | x8 | x8 | x8 | x8 | %95
 (G/^F/)(E/D/) z B, G, z z A, | ^F, z z G, ^D, z E, z | D, z z2 C, z z2 | B,, z z2 A,,/ z/ z z2 | %99
 G,,/ x/ x x2 G,,/ x/ x x2 | A,,/ x/ x x2 x4 | B,, z =B,, z C, z z2 | ^F,A,/G,/ A, x A,G,/F,/G, x | %103
 E,3/2 x/ G/^F/G/A/ D,D,D,D, | D,C,/B,,/ C,A,, =B,,(C,/B,,/) C,G,, | %105
 A,,(B,,/A,,/) B,,D, ^D, z z D, | D, z z D, D, z z D, | ^D,=D,D,^C, D, z z2 | x8 | x8 | x8 | x8 | %112
 x8 | x8 | D,3 x x2 D,^C | D, z x2 G,,4 |[M:12/8] B,,>D,F, (^D,/=D,/C,/B,,/)D F, z z z z ^D, | %117
 D, z z C, z B,, F, z z z A,,C, | z A,/G,/A, z A,=B, z G,/F,/G, x2 x | %119
 D, z ^D, F,D,F, B,,>=D,F, (^D,/=D,/C,/B,,/)D | F,>B,A, (G,/^F,/E,/D,/)C G,,>G,=F, ^D, z z | %121
 D,CB, D,B,C D,CD ^D/ x/ x2 | x6 C,>^D,G, (=F,/D,/=D,/C,/)C | CB,^F, G,C,D, x2 x C,D, z | %124
 G,,>B,,D, (C,/B,,/A,,/G,,/)G, D,>^D,=D, (C,/=B,,/A,,/G,,/)F, | %125
 z z/ C,/=D, (F,/^D,/=D,/C,/)^D G,>D,G, (F,/E,/D,/C,/)E | %126
 z z/ F,/F (^D/=D/C/B,/)D z z/ B,,/^D, (=D,/C,/B,,/A,,/)A, | D,G,,/G/B, C,F,/C/A, B,,G,^D, F, z z | %128
 C, z z z z A,, B,, z z z z B,, | ^D, x x x2 x x2 x x2 x | F,>A,C B,/A,/G,/F,/^D, =D, z z G,, z z | %131
 C, z z A,, z z B,,G,, B, =D,^D,F, | G,>^D,F, D,(G/^D/)B, C, z z B,, z z | %133
 A,, z z F,/(c/B/A/G/F/) z ^D,=D, (D,/4^D,/4F,/)(D/B,/)D, | %134
 B,,>D,F, (^D,/=D,/C,/B,,/)D F,>A,C (B,/A,/G,/F,/)^D | B,, x x x3 x6 |[M:3/8] x3 | x3 | x3 | x3 | %140
 x3 | x3 | x3 | x3 | x3 | x3 | x3 | x3 | x3 | x3 | x3 | x3 | x3 | x3 | x3 | x3 | x3 | x3 | x3 | %159
 x3 | x3 | x3 | x3 | x3 | x3 | x3 | x3 | x3 | x3 | x3 | x3 | x3 | x3 | x3 | x3 | x3 | x3 | x3 | %178
 x3 | x3 | x3 | x3 | x3 | x3 | x3 | x3 | x3 | x3 | x A,G, | D,3 :: x3 | x3 | x3 | x3 | x3 | x3 | %196
 x3 | x3 | x3 | x3 | x3 | x3 | x3 | x3 | x3 | x3 | x3 | x3 | x3 | x3 | x3 | x3 | x3 | x3 | x3 | %215
 x3 | x3 | x3 | x3 | x3 | x3 | x3 | x3 | x3 | x3 | x3 | x3 | x3 | x3 | x3 | x3 | x3 | x3 | x3 | %234
 x3 | x3 | x3 | x3 | x3 | x3 | x3 | x3 | x3 | x3 | x3 | x3 | x3 | x3 | x3 | x3 | x3 | x3 | x3 | %253
 x3 | x3 | x3 | x3 | x3 | x3 | x3 | x3 | x3 | x3 | x3 | x3 | x3 | x3 | x3 | x3 | x3 | x2 D, | %271
 G,,3 :| %272
V:3
 D,2 x2 x4 | C-(C/4D/8C/8B,/4C/4 TC3/4B,/8C/8D/A,/) B, x x2 | x8 | D2 x2 D,/ x/ x x F, | %4
 E, x x2 B,/ x/ x x2 | x8 | x8 | G,2 x2 E, x x2 | x4 ^F,/ x/ x x2 | %9
 A,/4B,G,/4B,/4D/4 x2 (G,^F,) =F,3/4(G,/8^G,/8=G,/4F,/4^D,/4F,/8=D,/8) | C,/ x/ x x2 ^G,, x x2 | %11
 x4 x C F, x | ^F,2 x2 C/ x/ x x2 | x8 | =B,2 x2 G, x z ^G, | %15
 F, x x (^D/=B,/) C/>(_B,/^G,/4=G,/4^G,/4C/4) x2 | (C=B,) DD x x x ^D | %17
 ^D/-D/4(=D/4C/4D/4C/8B,/8C/8A,/8) x2 x4 | x8 | x8 | A,2 x A, A, x x2 | x8 |[M:2/2] x8 | x8 | %24
 D x C x B, x A, x | x4 ^F, x G, x | E, x ^F, x G,=F,/^D,/ D x | C x x2 C/^D/=D/C/ x2 | x8 | x8 | %30
 x8 | x8 | x2 DD C x CC | B, x B,=B, (G,/F,/)(F,/^D,/) x2 | x8 | x8 | x8 | x8 | x8 | x8 | x8 | %41
 x4 E x E x | D z ^C z DDDD | DD D^C/=B,/ C x DA, | B, x x A, A,G,/F,/ G,E, | F,/E,/D,/E,/ x2 x4 | %46
 x8 | x4 ^D, x E, x | ^F, x x2 G,=F,/E,/ x2 | E, x x2 E, x D x | D x x D ^C x x D | %51
 D x D x D x ^C x | C x =B, x _B, x A, x | A, x G, x G, x x G, | F, x x ^G F x ^F x | x8 | %56
 x2 x D D4 | ^C4 D4 | D^CD=B, C4 | x8 | x8 | x8 | x8 | x8 | x8 | x8 | x8 | x8 | x8 | x8 | x8 | x8 | %72
 x8 | =B, x ^D x =D x DF | x2 CC C x =B, x | G, x F, x ^F, x D, x | ^D, x x2 x4 | x8 | %78
 CB,/A,/ B, x B, x x2 | x DDD DC/B,/ CD | ^DDDD D=D/C/ D^D | ^D=D DC CB, x2 | %82
 z F,F,F, F,G,/F,/ ^D,=D, | ^D,B,B,B, B, z F,F, | D x x2 x B, x2 | x8 | x8 | x8 | x8 | x8 | x8 | %91
 x8 | x8 | x8 | x8 | x2 x D ^D x x A, | D x x D D x ^C x | C z B, z B, z A, z | %98
 A, x G,/ z/ z G,/ x/ x F, z | F,/ x/ x x2 ^D,/ x/ x x2 | x8 | x2 F, x ^D,D,/=D,/ ^D, z | x8 | %103
 ^C3/2 x/ x2 =CB,B,B, | A, z A, z D z G, z | F, x F,D DC/B,/ C C | C(^D/C/) =DA, B,(^D/C/) =DA, | %107
 A,B,B,A, B,>C A,3/2 x/ | x8 | x8 | x8 | x8 | x8 | x8 | C3 x x4 | A, x x2 B,4 | %116
[M:12/8] x6 DCB, B,A, z | z CB, z A,B, z B,>B, A, x2 | F, z z ^D, z =D, C, z B,, x2 x | %119
 B, x x x2 x =D, x x x x x | DC x x x x CB, x x DC | x12 | x6 G, x z z z x | D, x x x G, x x2 x4 | %124
 x6 G,F, x x x x | F,^D, x x x x ^D=D x x x x | EF x x x x D^D x x x C | %127
 C x x B, x x F, x x x x x | G, x x x x F, F, x x x x D | G x x x2 x x2 x x2 x | %130
 x x z z z x C x x =B, x x | G, x x F, x x x x G B, x x | x x x x2 =D, B, x x C x x | %133
 C x x x2 x x A,B, x x x | D, x x x x x DC x x x x | ^D=D x x3 x6 |[M:3/8] x3 | x3 | x3 | x3 | x3 | %141
 x3 | x3 | x3 | x3 | x3 | x3 | x3 | x3 | x3 | x3 | x3 | x3 | x3 | x3 | x3 | x3 | x3 | x3 | x3 | %160
 x3 | x3 | x3 | x3 | x3 | x3 | x3 | x3 | x3 | x3 | x3 | x3 | x3 | x3 | x3 | x3 | x3 | x3 | x3 | %179
 x3 | x3 | x3 | x3 | x3 | x3 | x3 | x3 | x3 | x x A,, | ^F,3 :: x3 | x3 | x3 | x3 | x3 | x3 | x3 | %197
 x3 | x3 | x3 | x3 | x3 | x3 | x3 | x3 | x3 | x3 | x3 | x3 | x3 | x3 | x3 | x3 | x3 | x3 | x3 | %216
 x3 | x3 | x3 | x3 | x3 | x3 | x3 | x3 | x3 | x3 | x3 | x3 | x3 | x3 | x3 | x3 | x3 | x3 | x3 | %235
 x3 | x3 | x3 | x3 | x3 | x3 | x3 | x3 | x3 | x3 | x3 | x3 | x3 | x3 | x3 | x3 | x3 | x3 | x3 | %254
 x3 | x3 | x3 | x3 | x3 | x3 | x3 | x3 | x3 | x3 | x3 | x3 | x3 | x3 | x3 | x3 | x2 C | B,3 :| %272
V:4
 G,,2 x2 A,,2 x2 | x4 G,, x x2 | x2 DD D/-D/4(^D/4=D/4C/4B,/4C/8A,/8) x2 | x8 | x8 | x8 | x8 | x8 | %8
 x8 | D, x x2 x4 | x8 | x8 | x8 | x8 | D,2 x2 x4 | x2 x G, ^D, x x2 | D, x x G, x x x G, | x8 | %18
 x8 | x8 | C,2 x ^C, D, x x2 | x8 |[M:2/2] x8 | x8 | x8 | x8 | x8 | x8 | x8 | x8 | x8 | x8 | x8 | %33
 x8 | x8 | x8 | x8 | x8 | x8 | x8 | x8 | x8 | x8 | x4 E, x x2 | D, z x2 x4 | x8 | x8 | x8 | x8 | %49
 x8 | x8 | x4 x2 E, x | x4 G, x F, x | x8 | x8 | G, x x2 x4 | x8 | x8 | x8 | D,4 D,4 | D,4 D,4 | %61
 D,4 D,4 | D,4 D,4 | x8 | x8 | x8 | x8 | x8 | x8 | x8 | x8 | x8 | x8 | D,G,G,G, G,F,/^D,/ F,=D, | %74
 x2 x ^D, =D, x x2 | x8 | x8 | x8 | x2 G, x G, x x2 | x F,F,F, x4 | x G,G,G, x4 | x8 | x8 | %83
 x4 D, x x2 | x8 | x8 | x8 | x8 | x8 | x8 | x8 | x8 | x8 | x8 | x8 | x8 | x8 | x4 G, x x2 | x8 | %99
 x8 | x8 | x8 | D, x x2 D, x x2 | x8 | x2 D, x G, x x2 | x8 | x8 | x8 | x8 | x8 | x8 | x8 | x8 | %113
 x8 | x8 | x4 D,4 |[M:12/8] x12 | x12 | x12 | x12 | x6 D, x x x x x | x12 | x12 | x12 | x12 | x12 | %126
 x12 | x12 | x x x x x x x x x x x F, | x12 | x6 x x x D, x x | x12 | x6 G, x x G, x x | %133
 F, x x x2 x x x x x x x | x12 | F, x x x3 x6 |[M:3/8] x3 | x3 | x3 | x3 | x3 | x3 | x3 | x3 | x3 | %145
 x3 | x3 | x3 | x3 | x3 | x3 | x3 | x3 | x3 | x3 | x3 | x3 | x3 | x3 | x3 | x3 | x3 | x3 | x3 | %164
 x3 | x3 | x3 | x3 | x3 | x3 | x3 | x3 | x3 | x3 | x3 | x3 | x3 | x3 | x3 | x3 | x3 | x3 | x3 | %183
 x3 | x3 | x3 | x3 | x3 | x3 | x3 :: x3 | x3 | x3 | x3 | x3 | x3 | x3 | x3 | x3 | x3 | x3 | x3 | %202
 x3 | x3 | x3 | x3 | x3 | x3 | x3 | x3 | x3 | x3 | x3 | x3 | x3 | x3 | x3 | x3 | x3 | x3 | x3 | %221
 x3 | x3 | x3 | x3 | x3 | x3 | x3 | x3 | x3 | x3 | x3 | x3 | x3 | x3 | x3 | x3 | x3 | x3 | x3 | %240
 x3 | x3 | x3 | x3 | x3 | x3 | x3 | x3 | x3 | x3 | x3 | x3 | x3 | x3 | x3 | x3 | x3 | x3 | x3 | %259
 x3 | x3 | x3 | x3 | x3 | x3 | x3 | x3 | x3 | x3 | x3 | x3 | D,3 :| %272

